ui/src/assets/icons/items/gauntlet.svg

<svg xmlns="http://www.w3.org/2000/svg" viewBox="0 0 512 512"><path d="M0 0h512v512H0z"/><path fill="#fff" d="M215.75 21.063c-1.306 0-2.582.045-3.813.125a43.537 43.537 0 0 0-5.5.718L171.47 82.5a53.02 53.02 0 0 1 13.31-1.688c21.424 0 39.93 12.778 48.407 31.094l39.188-67.844c-4.546-5.766-14.702-13.066-26.97-17.53-9.74-3.546-20.516-5.473-29.655-5.47zm85.72 17.53c-1.583-.03-3.07.047-4.47.188l-44.53 77.157a52.952 52.952 0 0 1 15.218-2.25c20.817 0 38.924 12.05 47.718 29.532l43.156-74.782c-4.125-6.924-13.916-15.663-25.78-21.532-10.44-5.163-22.204-8.138-31.313-8.312zm-162.5 29.344c-10.902.22-21.355 4.083-32.5 12.22C96.044 87.766 85.3 99.3 74.187 114.5L122 130.78l34.656-60.03c-5.398-1.782-10.563-2.693-15.5-2.813-.73-.017-1.46-.014-2.187 0zM370.312 85.5 325.5 163.156c5.325-1.817 11.015-2.844 16.938-2.844 20.334 0 38.045 11.61 46.906 28.532l36.97-64c-3.564-8.5-12.897-19.255-24.19-27.03C391.22 90.3 378.678 85.84 370.313 85.5zm-185.532 14c-19.27 0-34.718 15.448-34.718 34.75s15.45 34.75 34.72 34.75 34.687-15.445 34.687-34.75c0-19.302-15.418-34.75-34.69-34.75zM58.53 128.938C48.27 179.428 49.268 231.032 64.595 275c.186.536.372 1.06.562 1.594l.188-.22 7.125 10.22c.872 1.25 1.81 2.52 2.78 3.78-.837-41.212 10.51-89.245 37.438-143L58.53 128.94zm209.157 3.437c-19.27 0-34.687 15.416-34.687 34.72 0 19.3 15.417 34.75 34.688 34.75 19.27 0 34.718-15.446 34.718-34.75 0-19.304-15.448-34.72-34.72-34.72zm169.282 12.688-41.783 72.375c-.048.614-.087 1.235-.156 1.843a49.492 49.492 0 0 1 13.44-1.874c21.296 0 39.572 13.55 46.717 32.438l36.532-63.25c-3.43-8.86-12.62-20.092-23.783-28.313-10.62-7.82-22.842-12.6-30.968-13.218zm-303.72 3.218C99.888 212.04 89.896 266.26 95.344 308.876c.133 1.044.286 2.063.437 3.094 20.05 17.924 47.18 35.918 76.25 51.717 40.17 21.83 84.096 39.88 118.064 50.125 42.028-15.246 84.304-46.497 119.156-96.468-.26.004-.52.03-.78.03-27.474 0-49.94-22.483-49.94-49.968 0-1.24.068-2.468.158-3.687a52.551 52.551 0 0 1-16.25 2.592c-28.306 0-51.592-22.493-52.907-50.5a52.87 52.87 0 0 1-21.842 4.72c-25.675 0-47.22-18.35-52.25-42.595-8.685 6.134-19.27 9.75-30.657 9.75-24.53 0-45.332-16.764-51.53-39.406zM342.438 179c-19.033 0-34.282 15.25-34.282 34.313 0 19.063 15.25 34.312 34.28 34.312 19.034 0 34.252-15.246 34.252-34.313 0-19.063-15.218-34.312-34.25-34.312zm66.03 57.125c-17.362 0-31.25 13.888-31.25 31.28 0 17.394 13.888 31.283 31.25 31.283 17.364 0 31.25-13.886 31.25-31.282 0-17.393-13.886-31.28-31.25-31.28zM64.907 307.25a505.784 505.784 0 0 0-20.344 28.47c3.222 9.158 10.11 19.44 20.657 29.967 13.9 13.877 33.814 28.027 57.81 41.063 41.59 22.59 95.45 41.855 152.032 52.53a312.392 312.392 0 0 0 8.22-28.25c-35.365-10.748-79.208-28.665-120.188-50.936-39.39-21.407-75.667-46.16-98.188-72.844zM32.72 354.563c-4.446 7.515-8.483 14.866-12.126 22.093 1.467 9.07 7.963 20.19 19.593 31.72 12.248 12.14 29.84 24.596 51.094 36.062 41.084 22.16 95.78 40.72 152.22 49.187h17.375a304.144 304.144 0 0 0 7.47-16.563c-57.277-11.12-111.46-30.63-154.25-53.875-25.16-13.666-46.376-28.622-62.064-44.28-7.912-7.9-14.49-16.006-19.31-24.344zm-14.47 57.53v34.094c1.047 2.302 3.192 5.48 6.875 8.97 5.26 4.982 13.178 10.427 22.844 15.53 18.88 9.97 44.434 18.675 70.624 22.938H161c-28.807-9.095-55.546-20.318-78.594-32.75-22.413-12.09-41.336-25.303-55.375-39.22-3.173-3.145-6.107-6.326-8.78-9.56zm0 61.782v19.75h34.344c-4.66-2.048-9.133-4.183-13.344-6.406-7.93-4.19-15.012-8.627-21-13.345z"/></svg>

<svg xmlns="http://www.w3.org/2000/svg" viewBox="0 0 512 512">
    <path d="M0 0h512v512H0z" />
    <!-- Finger plates (thumb) - Primary metal -->
    <path fill="#fff" data-channel="primary"
        d="M215.75 21.063C214.444 21.063 213.168 21.108 211.937 21.188A43.537 43.537 0 0 0 206.437 21.906L171.47 82.5A53.02 53.02 0 0 1 184.78 80.812C206.204 80.812 224.71 93.59 233.187 111.906L272.375 44.062C267.829 38.296 257.673 30.996 245.405 26.532 235.665 22.986 224.889 21.059 215.75 21.062Z" />
    <!-- Finger plates (index) - Primary metal -->
    <path fill="#fff" data-channel="primary"
        d="M301.47 38.593C299.887 38.563 298.4 38.64 297 38.781L252.47 115.938A52.952 52.952 0 0 1 267.688 113.688C288.505 113.688 306.612 125.738 315.406 143.22L358.562 68.438C354.437 61.514 344.646 52.775 332.782 46.906 322.342 41.743 310.578 38.768 301.469 38.594Z" />
    <!-- Finger plates (pinky) - Primary metal -->
    <path fill="#fff" data-channel="primary"
        d="M138.97 67.937C128.068 68.157 117.615 72.02 106.47 80.157 96.044 87.766 85.3 99.3 74.187 114.5L122 130.78 156.656 70.75C151.258 68.968 146.093 68.057 141.156 67.937 140.426 67.92 139.696 67.923 138.969 67.937Z" />
    <!-- Finger plates (middle) - Primary metal -->
    <path fill="#fff" data-channel="primary"
        d="M370.312 85.5L325.5 163.156C330.825 161.339 336.515 160.312 342.438 160.312 362.772 160.312 380.483 171.922 389.344 188.844L426.314 124.844C422.75 116.344 413.417 105.589 402.124 97.814 391.22 90.3 378.678 85.84 370.313 85.5Z" />
    <!-- Finger joint (thumb) - Detail accent -->
    <path fill="#fff" data-channel="detail"
        d="M184.78 99.5C165.51 99.5 150.062 114.948 150.062 134.25S165.512 169 184.782 169 219.469 153.555 219.469 134.25C219.469 114.948 204.051 99.5 184.779 99.5Z" />
    <!-- Palm reinforcement (outer edge) - Primary metal -->
    <path fill="#fff" data-channel="primary"
        d="M58.53 128.938C48.27 179.428 49.268 231.032 64.595 275 64.781 275.536 64.967 276.06 65.157 276.594L65.345 276.374 72.47 286.594C73.342 287.844 74.28 289.114 75.25 290.374 74.413 249.162 85.76 201.129 112.688 147.374L58.53 128.94Z" />
    <!-- Finger joint (index) - Detail accent -->
    <path fill="#fff" data-channel="detail"
        d="M267.687 132.375C248.417 132.375 233 147.791 233 167.095 233 186.395 248.417 201.845 267.688 201.845 286.958 201.845 302.406 186.399 302.406 167.095 302.406 147.791 286.958 132.375 267.686 132.375Z" />
    <!-- Finger joint (pinky) - Primary metal -->
    <path fill="#fff" data-channel="primary"
        d="M436.969 145.063L395.186 217.438C395.138 218.052 395.099 218.673 395.03 219.281A49.492 49.492 0 0 1 408.47 217.407C429.766 217.407 448.042 230.957 455.187 249.845L491.719 186.595C488.289 177.735 479.099 166.503 467.936 158.282 457.316 150.462 445.094 145.682 436.968 145.064Z" />
    <!-- Main palm plate - Primary metal -->
    <path fill="#fff" data-channel="primary"
        d="M133.249 148.281C99.888 212.04 89.896 266.26 95.344 308.876 95.477 309.92 95.63 310.939 95.781 311.97 115.831 329.894 142.961 347.888 172.031 363.687 212.201 385.517 256.127 403.567 290.095 413.812 332.123 398.566 374.399 367.315 409.251 317.344 408.991 317.348 408.731 317.374 408.471 317.374 380.997 317.374 358.531 294.891 358.531 267.406 358.531 266.166 358.599 264.938 358.689 263.719A52.551 52.551 0 0 1 342.439 266.311C314.133 266.311 290.847 243.818 289.532 215.811A52.87 52.87 0 0 1 267.69 220.531C242.015 220.531 220.47 202.181 215.44 177.936 206.755 184.07 196.17 187.686 184.783 187.686 160.253 187.686 139.451 170.922 133.253 148.28Z" />
    <!-- Finger joint (ring) - Detail accent -->
    <path fill="#fff" data-channel="detail"
        d="M342.438 179C323.405 179 308.156 194.25 308.156 213.313 308.156 232.376 323.406 247.625 342.436 247.625 361.47 247.625 376.688 232.379 376.688 213.312 376.688 194.249 361.47 179 342.438 179Z" />
    <!-- Finger joint (pinky) - Detail accent -->
    <path fill="#fff" data-channel="detail"
        d="M408.468 236.125C391.106 236.125 377.218 250.013 377.218 267.405 377.218 284.799 391.106 298.688 408.468 298.688 425.832 298.688 439.718 284.802 439.718 267.406 439.718 250.013 425.832 236.126 408.468 236.126Z" />
    <!-- Wrist guard (upper) - Edge highlight -->
    <path fill="#fff" data-channel="edge"
        d="M64.907 307.25A505.784 505.784 0 0 0 44.563 335.72C47.785 344.878 54.673 355.16 65.22 365.687 79.12 379.564 99.034 393.714 123.03 406.75 164.62 429.34 218.48 448.605 275.062 459.28A312.392 312.392 0 0 0 283.282 431.03C247.917 420.282 204.074 402.365 163.094 380.094 123.704 358.687 87.427 333.934 64.906 307.25Z" />
    <!-- Wrist guard (mid) - Secondary dark metal -->
    <path fill="#fff" data-channel="secondary"
        d="M32.72 354.563C28.274 362.078 24.237 369.429 20.594 376.656 22.061 385.726 28.557 396.846 40.187 408.376 52.435 420.516 70.027 432.972 91.281 444.438 132.365 466.598 187.061 485.158 243.501 493.625H260.876A304.144 304.144 0 0 0 268.346 477.062C211.069 465.942 156.886 446.432 114.096 423.187 88.936 409.521 67.72 394.565 52.032 378.907 44.12 371.007 37.542 362.901 32.722 354.563Z" />
    <!-- Wrist guard (lower) - Secondary dark metal -->
    <path fill="#fff" data-channel="secondary"
        d="M18.25 412.093V446.187C19.297 448.489 21.442 451.667 25.125 455.157 30.385 460.139 38.303 465.584 47.969 470.687 66.849 480.657 92.403 489.362 118.593 493.625H161C132.193 484.53 105.454 473.307 82.406 460.875 59.993 448.785 41.07 435.572 27.031 421.655 23.858 418.51 20.924 415.329 18.251 412.095Z" />
    <!-- Wrist cuff - Edge highlight -->
    <path fill="#fff" data-channel="edge"
        d="M18.25 473.875V493.625H52.594C47.934 491.577 43.461 489.442 39.25 487.219 31.32 483.029 24.238 478.592 18.25 473.874Z" />
</svg>
